icons/1_Primary/Roundcube.svg

<svg xmlns="http://www.w3.org/2000/svg" width="1024" height="1024" fill="none">
   <g clip-path="url(#a)">
      <path fill="#9ABEFF" d="M512 1024c282.77 0 512-229.23 512-512S794.77 0 512 0 0 229.23 0 512s229.23 512 512 512Z"/>
      <path fill="#fff" d="M512 273.8c-85.5 0-157 64.9-165.1 150l-64.7 37.3 93.5 54c-41.8-75.2-14.6-170.1 60.6-211.8 23.1-12.9 49.2-19.6 75.7-19.6 86.1 0 155.8 69.8 155.8 155.8 0 26.4-6.7 52.4-19.5 75.5l93.4-53.9-64.6-37.3c-8.1-85.1-79.6-150-165.1-150ZM272.3 466.9v147.8L507 750.2V602.5L272.3 466.9Zm479.4 0-115.4 66.7-104.8 60.5-2.2 1.3-12.3 7.1v147.8l234.7-135.6V466.9Z"/>
   </g>
   <defs>
      <clipPath id="a">
         <path fill="#fff" d="M0 0h1024v1024H0z"/>
      </clipPath>
   </defs>
</svg>

<svg width="1024" height="1024" viewBox="0 0 1024 1024" fill="none" xmlns="http://www.w3.org/2000/svg">
<g clip-path="url(#clip0_2_3369)">
<path d="M512 1024C794.77 1024 1024 794.77 1024 512C1024 229.23 794.77 0 512 0C229.23 0 0 229.23 0 512C0 794.77 229.23 1024 512 1024Z" fill="#9ABEFF"/>
<path d="M512 273.8C426.5 273.8 355 338.7 346.9 423.8L282.2 461.1L375.7 515.1C333.9 439.9 361.1 345 436.3 303.3C459.4 290.4 485.5 283.7 512 283.7C598.1 283.7 667.8 353.5 667.8 439.5C667.8 465.9 661.1 491.9 648.3 515L741.7 461.1L677.1 423.8C669 338.7 597.5 273.8 512 273.8ZM272.3 466.9V614.7L507 750.2V602.5L272.3 466.9ZM751.7 466.9L636.3 533.6L531.5 594.1L529.3 595.4L517 602.5V750.3L751.7 614.7V466.9Z" fill="white"/>
</g>
<defs>
<clipPath id="clip0_2_3369">
<rect width="1024" height="1024" fill="white"/>
</clipPath>
</defs>
</svg>
